assets/icons/24px/stroke/retweet-24px.svg

<svg width="24" height="24" viewBox="0 0 24 24" fill="none" xmlns="http://www.w3.org/2000/svg">
<path fill-rule="evenodd" clip-rule="evenodd" d="M11.5 5.5C11.5 6.05229 11.9477 6.5 12.5 6.5L14 6.5C14.9711 6.5 15.5988 6.50213 16.0613 6.56431C16.495 6.62263 16.631 6.71677 16.7071 6.7929C16.7832 6.86902 16.8774 7.00497 16.9357 7.43871C16.9979 7.90121 17 8.52893 17 9.50001L17 16.365L15.6402 15.2318C15.2159 14.8782 14.5853 14.9355 14.2318 15.3598C13.8782 15.7841 13.9355 16.4147 14.3598 16.7682L17.3598 19.2682C17.7307 19.5773 18.2693 19.5773 18.6402 19.2682L21.6402 16.7682C22.0645 16.4147 22.1218 15.7841 21.7682 15.3598C21.4147 14.9355 20.7841 14.8782 20.3598 15.2318L19 16.365L19 9.5C19 9.47799 19 9.45604 19 9.43417C19.0001 8.54769 19.0001 7.78387 18.9179 7.17221C18.8297 6.5167 18.631 5.88835 18.1213 5.37868C17.6117 4.86902 16.9833 4.67028 16.3278 4.58215C15.7161 4.49991 14.9523 4.49995 14.0658 4.5C14.044 4.5 14.022 4.5 14 4.5L12.5 4.5C11.9477 4.5 11.5 4.94772 11.5 5.5Z" fill="white"/>
<path fill-rule="evenodd" clip-rule="evenodd" d="M12.5 18.5C12.5 17.9477 12.0523 17.5 11.5 17.5L9.99949 17.5C9.02857 17.5 8.401 17.4979 7.93859 17.4357C7.50497 17.3774 7.36904 17.2833 7.29289 17.2071C7.21676 17.131 7.12261 16.995 7.0643 16.5613C7.00212 16.0988 6.99999 15.4711 6.99999 14.5L6.99999 7.63503L8.35982 8.76822C8.78409 9.12178 9.41466 9.06446 9.76822 8.64018C10.1218 8.21591 10.0645 7.58534 9.64018 7.23178L6.64018 4.73177C6.26933 4.42273 5.73065 4.42273 5.35981 4.73177L2.35981 7.23178C1.93554 7.58534 1.87821 8.21591 2.23178 8.64018C2.58534 9.06446 3.21591 9.12178 3.64019 8.76822L4.99999 7.63504L4.99999 14.5C4.99999 14.522 4.99999 14.544 4.99999 14.5658C4.99994 15.4523 4.9999 16.2161 5.08213 16.8278C5.17027 17.4833 5.36901 18.1117 5.87867 18.6213C6.38831 19.131 7.01658 19.3297 7.67205 19.4179C8.28364 19.5001 9.04734 19.5 9.93366 19.5C9.95552 19.5 9.97747 19.5 9.99949 19.5L11.5 19.5C12.0523 19.5 12.5 19.0523 12.5 18.5Z" fill="white"/>
</svg>

<svg width="24" height="24" fill="none" xmlns="http://www.w3.org/2000/svg"><path fill-rule="evenodd" clip-rule="evenodd" d="M11.5 5.5a1 1 0 0 0 1 1H14c.971 0 1.599.002 2.061.064.434.059.57.153.646.229.076.076.17.212.229.646.062.462.064 1.09.064 2.061v6.865l-1.36-1.133a1 1 0 1 0-1.28 1.536l3 2.5a1 1 0 0 0 1.28 0l3-2.5a1 1 0 1 0-1.28-1.536L19 16.365V9.5v-.066c0-.886 0-1.65-.082-2.262-.088-.655-.287-1.284-.797-1.793-.51-.51-1.138-.709-1.793-.797-.612-.082-1.376-.082-2.262-.082H12.5a1 1 0 0 0-1 1zm1 13a1 1 0 0 0-1-1H10c-.971 0-1.599-.002-2.061-.064-.434-.059-.57-.153-.646-.229-.076-.076-.17-.212-.229-.646C7.002 16.1 7 15.471 7 14.5V7.635l1.36 1.133a1 1 0 1 0 1.28-1.536l-3-2.5a1 1 0 0 0-1.28 0l-3 2.5a1 1 0 1 0 1.28 1.536L5 7.635v6.931c0 .886 0 1.65.082 2.262.088.655.287 1.284.797 1.793.51.51 1.138.709 1.793.797.612.082 1.375.082 2.262.082H11.5a1 1 0 0 0 1-1z" fill="#fff"/></svg>
